src/actions/24/view-time-schedule-baselined-add.svg

<svg viewBox="0 0 24 24" xmlns="http://www.w3.org/2000/svg">
 <defs>
  <style type="text/css">.ColorScheme-Text {
        color:#2e3440;
      }
      .ColorScheme-Highlight {
        color:#88c0d0;
      }</style>
 </defs>
 <path class="ColorScheme-Text" d="m4 4v16h11v-1h-10v-11h14v7h1v-11h-2v3h-2v-3h-8v3h-2v-3h-2zm2 5v3h1v-1h4v1h1v-3h-1v1h-4v-1h-1zm4 4v3h1v-1h4v1h1v-3h-1v1h-4v-1h-1zm7 2v2h-2v1h2v2h1v-2h2v-1h-2v-2h-1z" fill="currentColor"/>
 <path class="ColorScheme-Highlight" d="m13 8v11h1v-11h-1z" fill="currentColor"/>
</svg>

<svg xmlns="http://www.w3.org/2000/svg" viewBox="0 0 24 24">
  <defs id="defs3051">
    <style type="text/css" id="current-color-scheme">
      .ColorScheme-Text {
        color:#2e3440;
      }
      .ColorScheme-Highlight {
        color:#88c0d0;
      }
      </style>
  </defs>
 <path style="fill:currentColor;fill-opacity:1;stroke:none" 
       d="M 4 4 L 4 20 L 15 20 L 15 19 L 5 19 L 5 8 L 19 8 L 19 15 L 20 15 L 20 4 L 18 4 L 18 7 L 16 7 L 16 4 L 8 4 L 8 7 L 6 7 L 6 4 L 4 4 z M 6 9 L 6 12 L 7 12 L 7 11 L 11 11 L 11 12 L 12 12 L 12 9 L 11 9 L 11 10 L 7 10 L 7 9 L 6 9 z M 10 13 L 10 16 L 11 16 L 11 15 L 15 15 L 15 16 L 16 16 L 16 13 L 15 13 L 15 14 L 11 14 L 11 13 L 10 13 z M 17 15 L 17 17 L 15 17 L 15 18 L 17 18 L 17 20 L 18 20 L 18 18 L 20 18 L 20 17 L 18 17 L 18 15 L 17 15 z "
     class="ColorScheme-Text"
     />
 <path style="fill:currentColor;fill-opacity:1;stroke:none" 
       d="M 13 8 L 13 19 L 14 19 L 14 8 L 13 8 z "
     class="ColorScheme-Highlight"
     />
</svg>
